X:1
T:Flow My Tears
T:Flow My Tears
T:John Dowland
C:John Dowland
%%score 1 { ( 2 4 ) | ( 3 5 ) }
L:1/8
Q:1/4=65
M:4/4
K:A
V:1 treble nm="Voice" snm="Vo."
V:2 treble nm="Piano" snm="Pno."
V:4 treble 
V:3 bass 
V:5 bass 
V:1
!p! F3 (E/D/) C2 A2- | A2 GF ^E4 | F2 C3 C EE | D2 B,2 C3 G |[M:3/2] A2 F2 G2 ^E2 FA- A/G/F | %5
w: Flow my _ tears fall|_ from your springs,|Ex- il'd for ev- er|let me mourn: Where|night's black bird her sad in- * fa- my|
 ^E2 A2 GF F3 (E/^D/ E2) |[M:4/4] F8 |!mf! F3 (E/D/) C2 A2- | A2 GF ^E4 | F2 C3 C EE | %10
w: sings, There let me live for- * *|lorn.|Down vain * lights shine|_ you no more,|No nights are dark e-|
 D2 B,2 C3 G |[M:3/2] A2 F2 G2 ^E2 FA- A/G/F | ^E2 A2 GF F3 (E/^D/ E2) |[M:4/4] F8 | %14
w: nough for those That|in de- spair their last for- * tunes de-|plore, Light doth but shame dis- * *|close.|
[M:3/4]!f! A3 G FE | A3 (G/F/) G2 | A2 E2 z F- | F^E FD C2 |[M:4/4]!p! z!<(! B, D2 z D F2 | %19
w: Ne- ver may my|woes be- * re-|liv- ed, Since|_ pi- ty is fled,|And tears, and sighs,|
 z F A2 z E G>A | B2 z B, D>E F2 | z A2 G A>G (F/^E/)F | ^E8!<)! |[M:3/4]!p! A3 G!<(! FE | %24
w: and groans my wear- y|days, my wear- y days|Of all joys have de- * prive-|ed.|From the high- est|
 A3 G/F/ G2 | A2 E2 z!<)!!f! F- | F^E FD C2 |[M:4/4] z B, D2 z D F2 | z F A2 z E G>A | %29
w: spire of * con-|tent- ment, My|_ for- tune is thrown,|And fear, and greif,|and pain, for my de-|
 B2 z B, D>E F2 | z A2 G A>G (F/^E/)F | ^E8 ||!mf! ^E3 F G2 A2 | GF F4 ^E2 | F3 A GA F2 | ^E4 z4 | %36
w: serts, for my de- serts,|Are my hopes sinse ho- pe is|gone.|Hark, you sha- dows|that in dark- ness|dwell, Learn to con- temn|light,|
 z2 c3 G B2- | BF A2 G2 F2 |[M:3/4] ^E2 A2 GF | F3 (^E/^D/ E2) |[M:4/4] F2 c3 G B2- | BF A2 G2 F2 | %42
w: Hap- py, hap-|* py they that in|hell Feel not the|world's de * *|.spite Hap- py, hap-|* py they that in|
[M:3/4] !fermata!^E2 A2 GF | F3 (^E/^D/ E2) |[M:4/4] F8 |] %45
w: hell Feel not the|world's de- * *|spite.|
V:2
!p! A,3 G, A,B, C2- | CB,/A,/ B,2 C2 C2 | z C F2 E/D/C/B,/ C2 | z8 | %4
[M:3/2] z C- C/B,/C/^D/ EB, C3 C B,2 | C2 CE D2 B,2 z C2 B, |[M:4/4] ^A,>D C/B,/A,/G,/ [A,C]4 | %7
!mf! A,3 G, A,B, C2- | CB,/A,/ B,2 C2 C2 | z C F2 E/D/C/B,/ C2 | z8 | %11
[M:3/2] z C- C/B,/C/^D/ EB, C3 C B,2 | C2 CE D2 B,2 z C2 B, |[M:4/4] ^A,>D C/B,/A,/G,/ [A,C]4 | %14
[M:3/4]!f! [CE]4 [A,C]2 | [A,E]3 D B,2 | CA,>G,E, F,A, | G,C A,F, FC | %18
[M:4/4]!p! [F,D]2 z D F2 z [DF] | [CA]2 z2 C>D E2 | z B, D>E F2 z D- | DC/B,/ C2 A,/B,/ C2 B, | %22
 C>C B,/A,/G,/F,/ [^E,G,C]4 |[M:3/4]!p! [CE]4!<(! [A,C]2 | [A,E]3 D B,2 | CA,>G,E, F,!<)!!f!A, | %26
 G,C A,F, FC |[M:4/4]!p! [F,D]2 z D F2 z [DF] | [CA]2 z2 C>D E2 | z B, D>E F2 z D- | %30
 DC/B,/ C2 A,/B,/ C2 B, | C>C B,/A,/G,/F,/ [^E,G,C]4 ||!mf! C4 [G,C]2 z2 | [G,C]2 A,B, C3 B, | %34
 A,>B, C>^D [B,E]C-CB, | C3 G, A,2 E2- | EA, C2 B,3 C | D2 C2 z G,A,B, |[M:3/4] C3 E D2 | %39
 B,2 C3 B, |[M:4/4] ^A,B, C2 B,2- B,C | D2 C2 z G,A,B, |[M:3/4] !fermata!C3 E D2 | B,2 C3 B, | %44
[M:4/4] ^A,>D C/B,/A,/G,/ [A,C]4 |] %45
V:3
 [F,,C,F,]4 [F,,F,]3 E, | [D,F,]4 [C,G,]4 | [C,F,]4 A,,2 A,,2 | B,,2 D,2 C,4 | %4
[M:3/2] F,3 A, G,2 G,2 F,4 | G,2 A,2 B,A,G,F, G,4 |[M:4/4] F,4- F,F, F,,2 | %7
 [F,,C,F,]4 [F,,F,]3 E, | [D,F,]4 [C,G,]4 | [C,F,]4 A,,2 A,,2 | B,,2 D,2 C,4 | %11
[M:3/2] F,3 A, G,2 G,2 F,4 | G,2 A,2 B,A,G,F, G,4 |[M:4/4] F,4- F,F, F,,2 | %14
[M:3/4] [A,,A,]4 [A,,E,]2 | E,2 F,2 z D, | A,,3 C,A,,F,, | C,2 F,,B,,- B,,^A,, | %18
[M:4/4]"_cresc." z D, F,2 z F, A,2 | z A, F,/G,/A,/B,/ [E,A,]2 z E,, | %20
 G,,>A,, B,,2 z B,,, D,,>E,, | F,,3 ^E,, F,,2 D,,2 | [G,,C,]4 [G,,C,]C, C,,2 | %23
[M:3/4] [A,,A,]4 [A,,E,]2 | E,2 F,2 z D, | A,,3 C, A,,F,, | C,2 F,,B,,- B,,^A,, | %27
[M:4/4] z D, F,2 z F, A,2 | z A, F,/G,/A,/B,/ [E,A,]2 z2 | G,,>A,, B,,2 z B,,, D,,>E,, | %30
 F,,3 ^E,, F,,2 D,,2 | [G,,C,]4 [G,,C,]C, C,,2 || G,4 ^E,3 F, | ^E,4 [C,G,]4 | F,3 F, E,E, F,2 | %35
 [C,G,]4 x2 G,2- | G,F, F,4 ^E,2 | F,4 E,,2 D,,2 |[M:3/4] [G,,C,]2 A,,2 B,,2 | D,2 C,2 C,,2 | %40
[M:4/4] [C,F,]4 F,2 ^E,2 | F,4 E,,2 D,,2 |[M:3/4] [G,,C,]2 A,,2 B,,2 | D,2 C,2 C,,2 | %44
[M:4/4] [C,F,]4 z F, F,,2 |] %45
V:4
 x8 | x8 | A,4 z2 A,G, | B,A,G,F,[I:staff +1] G,F, ^E,2 |[M:3/2] x12 | x12 |[M:4/4] x8 | x8 | x8 | %9
[I:staff -1] A,4 z2 A,G, | B,A,G,F,[I:staff +1] G,F, ^E,2 |[M:3/2] x12 | x12 |[M:4/4] x8 | %14
[M:3/4] x6 | x6 | x6 | x6 |[M:4/4] x8 | x8 | x2[I:staff -1] F,2 x4 | x6 F,2 | [^E,G,]2 x6 | %23
[M:3/4] x6 | x6 | x6 | x6 |[M:4/4] x8 | x8 | x2 F,2 x4 | x6 F,2 | [^E,G,]2 x6 || x8 | x8 | x8 | %35
 x8 | x8 | x8 |[M:3/4] [^E,G,]2 [=E,A,]2 B,A, | G,F, G,4 |[M:4/4] x8 | x8 | %42
[M:3/4] [^E,G,]2 [=E,A,]2 B,A, | G,F, G,4 |[M:4/4] x8 |] %45
V:5
 x8 | x8 | F,,3 F,, x4 | x8 |[M:3/2] F,,3 F, E,2 C,2 D,4 | C,2 A,,2 B,,2 D,2 C,4 | %6
[M:4/4] [F,,C,]4 F,,2 x2 | x8 | x8 | F,,3 F,, x4 | x8 |[M:3/2] F,,3 F, E,2 C,2 D,4 | %12
 C,2 A,,2 B,,2 D,2 C,4 |[M:4/4] [F,,C,]4 F,,2 x2 |[M:3/4] x6 | x6 | x6 | x6 | %18
[M:4/4] B,,2 z B,,, D,,2 z D,, | F,,2 z F,, A,,2 x2 | x8 | x8 | C,,4 C,,2 x2 |[M:3/4] x6 | x6 | %25
 x6 | x6 |[M:4/4] B,,2 z B,,, D,,2 z D,, | F,,2 z F,, A,,2 z E,, | x8 | x8 | C,,4 C,,2 x2 || %32
 C,4 C,4 | C,4 x4 | [F,,C,]3 x E,C, D,2 | x4 C,3 G,, | A,,4 G,,4 | F,,3 F,, x4 |[M:3/4] C,,2 x4 | %39
 x6 |[M:4/4] F,,4 G,,2- G,,2 | F,,3 F,, z4 |[M:3/4] !fermata!C,,2 x4 | x6 |[M:4/4] F,,4 F,,2 x2 |] %45

